X:1
T:Title
%%score ( 1 2 ) { 3 | 4 }
L:1/8
M:3/4
K:G
V:1 treble nm="Grand Piano, Unnamed-000"
V:2 treble 
V:3 bass nm="Choir Pad, Ash Grove"
V:4 bass 
V:1
 D2 [DG]2 [DB]2 | dc [DB]2 G2 | [EG]2 [EA]2 cB | AG [DF]2 D2- | DD [DG]2 BA | GF [CE]2 C2 | %6
w: By~Welsh~melody * *||||||
 [CE]2 [B,D]2 [DG]2 | [DF]2 [DG]4 | D2 [DG]2 [DB]2 | dc [DB]2 G2 | [EG]2 [EA]2 cB | AG [DF]2 D2- | %12
w: ||||||
 DD [DG]2 BA | GF [CE]2 C2 | [CE]2 [B,D]2 [DG]2 | [DF]2 [DG]4 | [GB][Ac] [Bd]2 [GB][Ac] | %17
w: |||||
 [Bd][ce] [Bd]2 [Ac]2 | [GB]2 [Ac]2 [FA][GB] | [Ac][Bd] [Ac]2 [GB]2 | [FA]2 [GB]2 GA | %21
w: ||||
 Bc [GB]2 [FA]2 | [EG]2 [DF]2 [Fd]2 | [E^c]2 [Fd]4 | D2 [DG]2 [DB]2 | dc [DB]2 G2 | %26
w: |||||
 [EG]2 [EA]2 cB | AG [DF]2 D2 | D2 [DG]2 BA | GF [CE]2 C2 | [CE]2 [B,D]2 [DG]2 | [DF]2 [DG]4- | %32
w: ||||||
 [DG]4 z2 |] %33
w: |
V:2
 x6 | D2 z2 z2 | z2 z2 E2 | E2 z2 z2 | z2 z2 D2 | D2 z2 z2 | x6 | x6 | x6 | D2 z2 z2 | z2 z2 E2 | %11
 E2 z2 z2 | z2 z2 D2 | D2 z2 z2 | x6 | x6 | x6 | x6 | x6 | x6 | x6 | G2 z2 z2 | x6 | x6 | x6 | %25
 D2 z2 z2 | z2 z2 E2 | E2 z2 z2 | z2 z2 D2 | D2 z2 z2 | x6 | x6 | x6 |] %33
V:3
 D,2 B,2 G,2 | A,2 G,2 D2 | B,2 A,2 A,2 | A,2 A,2 F,2- | F,F, G,2 G,2 | G,2 G,2 G,2 | G,2 G,2 B,2 | %7
 C2 B,4 | D,2 B,2 G,2 | A,2 G,2 D2 | B,2 A,2 A,2 | A,2 A,2 F,2- | F,F, G,2 G,2 | G,2 E,2 C,D, | %14
 E,F, G,2 B,2 | C2 B,4 | G,2 G,2 G,2 | G,2 G,2 G,2 | G,2[K:treble] D2 D2 | D2 D2 D2 | D2 D2 B,C | %21
 DE D2[K:bass] B,2 | B,2 A,2 A,2 | A,2 A,4 | D,2 B,2 G,2 | A,2 G,2 D2 | B,2 A,2 A,2 | A,2 A,2 F,2 | %28
 F,2 G,2 G,2 | G,2 G,2 G,2 | G,2 G,2 B,2 | C2 B,4- | B,4 z2 |] %33
V:4
 z2 G,,2 z2 | F,2 z2 B,,2 | E,2 C,2 A,,2 | C,2 D,2 D,2- | D,C, B,,2 G,,2 | B,,2 C,2 E,2 | %6
 A,,2 D,2 D,2 | D,2 G,4 | z2 G,,2 z2 | F,2 z2 B,,2 | E,2 C,2 A,,2 | C,2 D,2 D,2- | D,C, B,,2 G,,2 | %13
 B,,2 C,2 A,,B,, | C,D, D,2 D,2 | D,2 G,4 | z6 | z6 | z2 D,2 D,2 | D,2 D,2 D,2 | D,2 G,2 G,2 | %21
 G,2 G,2 ^D,2 | E,2 z2 z2 | A,,2 D,4 | z2 G,,2 z2 | F,2 z2 B,,2 | E,2 C,2 A,,2 | C,2 D,2 D,E, | %28
 D,C, B,,2 G,,2 | B,,2 C,2 E,2 | A,,2 D,2 D,2 | D,2 G,4- | G,4 z2 |] %33

